icon/pk/windmill-two.svg

<svg viewBox="0 0 48 48" fill="none" xmlns="http://www.w3.org/2000/svg" height="1em" width="1em">
  <path d="M24 24C29.5228 24 34 19.5228 34 14C34 8.47715 29.5228 4 24 4V24Z" fill="#2F88FF" stroke="black" stroke-width="4" stroke-linejoin="round"/>
  <path d="M24 24C24 29.5228 28.4772 34 34 34C39.5228 34 44 29.5228 44 24H24Z" fill="#2F88FF" stroke="black" stroke-width="4" stroke-linejoin="round"/>
  <path d="M24 24C24 18.4772 19.5228 14 14 14C8.47715 14 4 18.4772 4 24H24Z" fill="#2F88FF" stroke="black" stroke-width="4" stroke-linejoin="round"/>
  <path d="M24 24C18.4772 24 14 28.4772 14 34C14 39.5228 18.4772 44 24 44V24Z" fill="#2F88FF" stroke="black" stroke-width="4" stroke-linejoin="round"/>
</svg>

<svg width="48" height="48" fill="none" xmlns="http://www.w3.org/2000/svg"><path d="M24 24c5.523 0 10-4.477 10-10S29.523 4 24 4v20ZM24 24c0 5.523 4.477 10 10 10s10-4.477 10-10H24ZM24 24c0-5.523-4.477-10-10-10S4 18.477 4 24h20ZM24 24c-5.523 0-10 4.477-10 10s4.477 10 10 10V24Z" fill="#2F88FF" stroke="#000" stroke-width="4" stroke-linejoin="round"/></svg>
